packages/foundations/assets/icons/functional/images/food/breakfast_12.svg

<svg width="12" height="12" viewBox="0 0 12 12" fill="none" xmlns="http://www.w3.org/2000/svg">
<g clip-path="url(#clip0_232_243)">
<path fill-rule="evenodd" clip-rule="evenodd" d="M9.63809 6.22487C10.284 6.24687 10.8381 6.67767 10.8381 7.27487C10.8381 7.85824 10.3036 8.30988 9.63809 8.32308V8.76935C9.63809 9.24498 9.57881 9.59019 9.42463 9.8732C9.27045 10.1562 9.0604 10.3649 8.78642 10.5114C8.52038 10.6537 8.25817 10.7137 7.81961 10.7234L7.09362 10.7249C6.57042 10.7249 6.28242 10.6679 5.98977 10.5114C5.71579 10.3649 5.49808 10.1472 5.35156 9.8732C5.20928 9.60716 5.14927 9.34495 5.13954 8.90639L5.13809 6.22487H9.63809ZM8.73798 7.12488H6.03798L6.03898 8.87842C6.04318 9.11721 6.05507 9.22991 6.10406 9.35915C6.15305 9.48839 6.29707 9.65514 6.41421 9.71778C6.4994 9.76334 6.64775 9.82399 6.96715 9.82399C7.18009 9.82399 7.45031 9.82399 7.77782 9.82399C8.11965 9.82399 8.25975 9.77246 8.36198 9.71778C8.47912 9.65514 8.56835 9.5659 8.631 9.44876C8.68456 9.34861 8.73798 9.14239 8.73798 8.94324V7.12488ZM4.47812 1.41413C5.10873 1.72273 5.19264 2.2693 4.93731 2.82316L4.77815 3.13361C4.93375 3.22833 5.01787 3.40185 4.99538 3.57877L4.90231 4.31099C5.19044 4.27487 5.42642 4.45772 5.44809 4.70325C5.46975 4.94878 5.29472 5.18216 5.03205 5.20422L2.06857 5.42797C2.0147 6.12268 2.33103 6.98487 2.58301 7.34557L3.75122 6.79203C3.95431 6.68882 4.17174 6.73029 4.32493 6.93675C4.47812 7.14322 4.39363 7.45062 4.21154 7.56304L3.70097 7.82682C3.82762 8.1513 4.16344 8.50857 4.26085 8.59878C4.4432 8.76764 4.45412 9.05236 4.28526 9.23471C4.11639 9.41705 3.83167 9.42795 3.64933 9.25912C3.51616 9.13579 3.38523 8.99337 3.28295 8.86153C3.10902 8.63733 2.97671 8.42014 2.88109 8.20031L2.6473 8.31135C2.47193 8.39449 2.26302 8.35583 2.12902 8.21545C1.75797 7.82673 1.4884 7.30526 1.31476 6.65722C1.14112 6.00918 1.11384 5.42278 1.24081 4.90062C1.28176 4.73224 1.42232 4.52784 1.84375 4.54319C1.80067 4.18596 1.79876 3.87615 1.83805 3.61377C1.92076 3.06135 2.17552 2.58038 2.60994 2.19729C2.72301 2.09758 2.87569 2.06299 3.01663 2.09818L3.1074 1.92491C3.40659 1.35083 3.82559 1.09481 4.47812 1.41413ZM7.08809 4.27487V5.47487H6.18809V4.27487H7.08809ZM8.58809 3.67487V5.47487H7.68809V3.67487H8.58809ZM2.98717 3.10764C2.8255 3.37955 2.7391 3.57877 2.71438 3.87462C2.69789 4.07186 2.70613 4.25799 2.7391 4.43302L3.98817 4.37044L4.06594 3.75669L2.98717 3.10764Z" fill="#1A1C1F"/>
</g>
<defs>
<clipPath id="clip0_232_243">
<rect width="12" height="12" fill="white"/>
</clipPath>
</defs>
</svg>

<svg xmlns="http://www.w3.org/2000/svg" width="12" height="12" fill="none"><g clip-path="url(#a)"><path fill="#1A1C1F" fill-rule="evenodd" d="M9.638 6.225c.646.022 1.2.453 1.2 1.05 0 .583-.534 1.035-1.2 1.048v.446c0 .476-.06.821-.213 1.104a1.53 1.53 0 0 1-.639.638c-.266.143-.528.203-.966.212l-.726.002c-.524 0-.812-.057-1.104-.214a1.54 1.54 0 0 1-.638-.638c-.143-.266-.203-.528-.212-.967l-.002-2.681zm-.9.9h-2.7l.001 1.753c.004.24.016.352.065.481.05.13.193.296.31.359.085.045.234.106.553.106h.81c.343 0 .483-.052.585-.106a.64.64 0 0 0 .269-.27c.054-.1.107-.306.107-.505zm-4.26-5.71c.63.308.715.854.46 1.408l-.16.31c.156.095.24.269.217.446l-.093.732c.288-.036.524.147.546.392a.46.46 0 0 1-.416.501l-2.963.224c-.054.695.262 1.557.514 1.918l1.168-.554c.203-.103.42-.062.574.145a.454.454 0 0 1-.113.626l-.511.264c.127.324.462.682.56.772a.45.45 0 0 1-.612.66 3.4 3.4 0 0 1-.366-.397 3 3 0 0 1-.402-.662l-.234.111a.45.45 0 0 1-.518-.096q-.555-.584-.814-1.558-.263-.972-.074-1.756c.04-.169.181-.373.603-.358a3.5 3.5 0 0 1-.006-.93 2.3 2.3 0 0 1 .772-1.416.45.45 0 0 1 .407-.099l.09-.173c.3-.574.719-.83 1.371-.51m2.61 2.86v1.2h-.9v-1.2zm1.5-.6v1.8h-.9v-1.8zm-5.6-.567c-.163.272-.249.47-.274.767q-.024.296.025.558l1.25-.063.077-.613z" clip-rule="evenodd"/></g><defs><clipPath id="a"><path fill="#fff" d="M0 0h12v12H0z"/></clipPath></defs></svg>
